static/app-icons/dark-theme/Security-002.svg

<svg xmlns="http://www.w3.org/2000/svg" viewBox="0 0 32 32"><defs><linearGradient id="linear-gradient" x1="6" y1="25.5" x2="27" y2="25.5" gradientUnits="userSpaceOnUse"><stop offset=".1" stop-opacity="0"/><stop offset=".75"/></linearGradient><linearGradient id="linear-gradient-2" y1="32" x2="32" gradientUnits="userSpaceOnUse"><stop offset=".2" stop-color="#8a3ffc"/><stop offset=".8" stop-color="#30b0ff"/></linearGradient><style>.cls-5{fill:#f4f4f4}</style><mask id="mask" x="0" y="0" width="32" height="32" maskUnits="userSpaceOnUse"><path d="M15 29a9.011 9.011 0 01-9-9V7.618l9-4.5 11 5.5V6.382l-11-5.5-11 5.5V20a11 11 0 0022 0h-2a9.011 9.011 0 01-9 9z" fill="#fff"/><path fill="url(#linear-gradient)" d="M6 19h21v13H6z"/></mask></defs><g id="Layer_2" data-name="Layer 2"><g id="Dark_theme_icons" data-name="Dark theme icons"><g mask="url(#mask)"><path fill="url(#linear-gradient-2)" d="M0 0h32v32H0z"/></g><path class="cls-5" d="M16 12a3 3 0 103 3 3 3 0 00-3-3zm0 4a1 1 0 111-1 1 1 0 01-1 1zM21 12v6h6v-6zm4 4h-2v-2h2zM24 20a3 3 0 103 3 3 3 0 00-3-3zm0 4a1 1 0 111-1 1 1 0 01-1 1zM13 26h6v-6h-6zm2-4h2v2h-2z"/></g></g></svg>

<svg xmlns="http://www.w3.org/2000/svg" xmlns:xlink="http://www.w3.org/1999/xlink" viewBox="0 0 32 32"><defs><style>.cls-1{fill:#fff;}.cls-2{fill:url(#linear-gradient);}.cls-3{mask:url(#mask);}.cls-4{fill:url(#linear-gradient-2);}.cls-5{fill:#f4f4f4;}</style><linearGradient id="linear-gradient" x1="6" y1="25.5" x2="27" y2="25.5" gradientUnits="userSpaceOnUse"><stop offset="0.1" stop-opacity="0"/><stop offset="0.75"/></linearGradient><mask id="mask" x="0" y="0" width="32" height="32" maskUnits="userSpaceOnUse"><path class="cls-1" d="M15,29a9.011,9.011,0,0,1-9-9V7.618l9-4.5,11,5.5V6.382L15,.882,4,6.382V20a11,11,0,0,0,22,0H24A9.011,9.011,0,0,1,15,29Z"/><rect class="cls-2" x="6" y="19" width="21" height="13"/></mask><linearGradient id="linear-gradient-2" y1="32" x2="32" gradientUnits="userSpaceOnUse"><stop offset="0.2" stop-color="#8a3ffc"/><stop offset="0.8" stop-color="#30b0ff"/></linearGradient></defs><g id="Layer_2" data-name="Layer 2"><g id="Dark_theme_icons" data-name="Dark theme icons"><g class="cls-3"><rect class="cls-4" width="32" height="32"/></g><path class="cls-5" d="M16,12a3,3,0,1,0,3,3A3,3,0,0,0,16,12Zm0,4a1,1,0,1,1,1-1A1,1,0,0,1,16,16Z"/><path class="cls-5" d="M21,12v6h6V12Zm4,4H23V14h2Z"/><path class="cls-5" d="M24,20a3,3,0,1,0,3,3A3,3,0,0,0,24,20Zm0,4a1,1,0,1,1,1-1A1,1,0,0,1,24,24Z"/><path class="cls-5" d="M13,26h6V20H13Zm2-4h2v2H15Z"/></g></g></svg>
